X: 584
T: Petticoat Loose
T: Curickle
N: Pub: J. Walsh, London, 1748
Z: 2012 John Chambers <jc:trillian.mit.edu>
S: 2: CCD2  http://petrucci.mus.auth.gr/imglnks/usimg/6/61/IMSLP173105-PMLP149069-caledoniancountr00ingl.pdf p.51 #311
S: 4: ACMV  http://archive.org/details/acompositemusicv01rugg p.4:51 #311
M: 6/8
L: 1/8
K: Am
% - - - - - - - - - - - - - - - - - - - - - - - - -
V: 1
B |\
c2A BGE | c2A BGE | GAG G2d | GAG G2B |\
c2A BGE | c2A BGE | ABA A2e | ABA A2 :|
|: B |\
cde def | edc BAG | g>ag gdB | g>ag gdB |\
cde def | edc dcB | ABA A2e | ABA A2 :|
% - - - - - - - - - - - - - - - - - - - - - - - - -
V: 2 clef=bass middle=d
z |\
e3 e3 | e3 e3 | g3 g3 | g3 g3 |\
e3 e3 | e3 e3 | a3 a3 | a3 a2 :||: g |
c'3 b3 | c'3 g3 | g3 g3 | g3 g3 |\
c'3 b3 | c'3 g3 | a3 a3 | a3 a2 :|
% - - - - - - - - - - - - - - - - - - - - - - - - -
%%begintext align
%% Two first Cu. fall back and cross over, and so back again to their Places :|
%% cross over and figure in .|
%% Lead thro' the 3d Cu. cast up and turn hands.
%%endtext

%%sep 1 1 500
%%sep 1 1 500
